X: 113
T: Nie nam, nasz Panie, stworzeniu podłemu,
C: Mikołaj Gomółka
%%abc-version 2.0
%%abcx-abcm2ps-target-version 5.9.1 (29 Sep 2008)
%%abc-creator hum2abc beta
%%abcx-conversion-date 2021/10/04 07:59:10
%%abc-edited-by Marta Lawrence
%%abcx-initial-encoding-date 2020-02-19
%%humdrum-veritas 371851454
%%humdrum-veritas-data 3329709027
%%linebreak <none>
%%barnumbers 0
L: 1/4
M: C|
N: Derived from pl-wn--sd-xvi-qu-273--115_gomolka-mikolaj--nie-nam-nasz-panie-stworzeniu-podlemu.krn
%%staves [1 2 3 4]
V: 1
V: 2 clef=alto
V: 3 clef=alto
V: 4
K: Bb
[V:1] A4c2A2 [|] 
[V:2] =E4F2E2 [|] 
[V:3] C4A,2A,2 [|] 
[V:4] A,4A,2C2 [|] 
[V:1] A4A2B4 [|] 
[V:2] =E2E2>F2G4 [|] 
[V:3] C2C2C2B,4 [|] 
[V:4] A,2A,2A,2G,4 [|] 
[V:1] A2G2F4 [|] 
[V:2] F=EDEF2 [|] 
[V:3] C2D3C [|] 
[V:4] A,2B,3A, [|] 
[V:1] =E2F2G2 [|] 
[V:2] D2CB,C2=E2 [|] 
[V:3] B,A,B,2A,2G,2 [|] 
[V:4] G,F,G,2F,2=E,2 [|] 
[V:1] A2A2A4 [|] 
[V:2] F2>=E2D4 [|] 
[V:3] F,2A,2A,4 [|] 
[V:4] D,2^C,2D,4 [|] 
[V:1] G2D2F2=ED [|] 
[V:2] D2B,CD2G,3 [|] 
[V:3] B,2G,2A,2B,3 [|] 
[V:4] G,2G,2D,2G,3 [|] 
[V:1] ^C2D4=C2 [|] 
[V:2] A,B,2G,2C2 [|] 
[V:3] A,G,F,G,2A,2 [|] 
[V:4] F,=E,D,E,2A,,2 [|] 
[V:1] D32x4 |]  
[V:2] B,2B,2A,32 |]  
[V:3] F,2G,2^F,32 |]  
[V:4] B,,2G,,2D,32 |]  


